X:1
T:Title
%%score { 1 | 2 }
L:1/8
M:2/4
K:E
V:1 treble nm="Grand Piano"
V:2 bass 
V:1
 z2 z[Q:1/4=84] [G,E] | [G,E][B,EG] [B,GB][EGB] | [EAc][EAc] [EGB]2 | [G,E][G,E] [B,EG][B,EG] | %4
 [B,DF]/[B,DF]/[A,DF]/[A,DF]/ [G,E][G,E] | [G,E][B,EG] [B,GB][EGB] | [EAc][EAc] [EGB]2 | %7
 [G,E][G,E] [B,EG][B,EG] |[M:5/8] [B,DF]/[B,DF]/[A,DF]/[A,DF]/ [G,E]3 | %9
[M:2/4] [G,E]/[G,E]/[G,E]/[B,EG]/ [EGB]2 | [EAc]/[EAc]/[EAc]/[EAc]/ [EGB]2 | %11
 [G,E][G,E] [B,EG][B,EG] |[M:5/8] [B,DF]/[B,DF]/[A,DF]/[A,DF]/ [G,E]3 |] %13
V:2
 z2 z E, | E,E, E,E, | A,A, E,2 | E,E, E,E, | B,,/B,,/B,,/B,,/ E,E, | E,E, E,E, | A,A, E,2 | %7
 E,E, E,E, |[M:5/8] B,,/B,,/B,,/B,,/ E,3 |[M:2/4] E,/E,/E,/E,/ E,2 | A,/A,/A,/A,/ E,2 | E,E, E,E, | %12
[M:5/8] B,,/B,,/B,,/B,,/ E,3 |] %13

